packages/kaspersky-hexa-ui-icons/src/iconsSVGs/28x20/FlagEg.svg

<svg width="28" height="20" viewBox="0 0 28 20" fill="none" xmlns="http://www.w3.org/2000/svg">
<g clip-path="url(#clip0_5138_726)">
<path d="M0 2C0 0.895431 0.895431 0 2 0H26C27.1046 0 28 0.895431 28 2V18C28 19.1046 27.1046 20 26 20H2C0.895431 20 0 19.1046 0 18V2Z" fill="white"/>
<mask id="mask0_5138_726" style="mask-type:luminance" maskUnits="userSpaceOnUse" x="0" y="0" width="28" height="20">
<rect width="28" height="20" rx="2" fill="white"/>
</mask>
<g mask="url(#mask0_5138_726)">
<path d="M26 19.5V20H2V19.5H26ZM27.5 18V2C27.5 1.17157 26.8284 0.5 26 0.5H2C1.17157 0.5 0.5 1.17157 0.5 2V18C0.5 18.8284 1.17157 19.5 2 19.5V20C0.895431 20 0 19.1046 0 18V2C2.57702e-07 0.895431 0.895431 0 2 0H26C27.1046 0 28 0.895431 28 2V18C28 19.1046 27.1046 20 26 20V19.5C26.8284 19.5 27.5 18.8284 27.5 18Z" fill="#F5F5F5"/>
<path fill-rule="evenodd" clip-rule="evenodd" d="M0 6.66667H28V0H0V6.66667Z" fill="#E41D33"/>
<path fill-rule="evenodd" clip-rule="evenodd" d="M0 20H28V13.3333H0V20Z" fill="#262626"/>
<mask id="path-6-inside-1_5138_726" fill="white">
<path fill-rule="evenodd" clip-rule="evenodd" d="M10.6667 8.66667C10.6667 8.29848 10.9651 8 11.3333 8H11.794C11.9202 8 12.0357 8.07133 12.0921 8.18426L12.6667 9.33333C12.6667 9.33333 13.3991 8 14 8C14.6667 8 15.3333 9.33333 15.3333 9.33333L15.9079 8.18426C15.9643 8.07133 16.0797 8 16.206 8H16.6667C17.0348 8 17.3333 8.29848 17.3333 8.66667V10.7543C17.3333 11.2868 16.7399 11.6044 16.2969 11.309L15.3333 10.6667H14.6667V11.3333C14.6667 11.7015 14.3682 12 14 12C13.6318 12 13.3333 11.7015 13.3333 11.3333V10.6667H12.6667L11.7031 11.309C11.2601 11.6044 10.6667 11.2868 10.6667 10.7543V8.66667Z"/>
</mask>
<path fill-rule="evenodd" clip-rule="evenodd" d="M10.6667 8.66667C10.6667 8.29848 10.9651 8 11.3333 8H11.794C11.9202 8 12.0357 8.07133 12.0921 8.18426L12.6667 9.33333C12.6667 9.33333 13.3991 8 14 8C14.6667 8 15.3333 9.33333 15.3333 9.33333L15.9079 8.18426C15.9643 8.07133 16.0797 8 16.206 8H16.6667C17.0348 8 17.3333 8.29848 17.3333 8.66667V10.7543C17.3333 11.2868 16.7399 11.6044 16.2969 11.309L15.3333 10.6667H14.6667V11.3333C14.6667 11.7015 14.3682 12 14 12C13.6318 12 13.3333 11.7015 13.3333 11.3333V10.6667H12.6667L11.7031 11.309C11.2601 11.6044 10.6667 11.2868 10.6667 10.7543V8.66667Z" fill="#F4B32E" fill-opacity="0.25" stroke="#C6A846" stroke-width="1.33333" mask="url(#path-6-inside-1_5138_726)"/>
</g>
</g>
<defs>
<clipPath id="clip0_5138_726">
<rect width="28" height="20" fill="white"/>
</clipPath>
</defs>
</svg>

<svg xmlns="http://www.w3.org/2000/svg" width="28" height="20" fill="none" viewBox="0 0 28 20"><g clip-path="url(#a)"><path fill="#fff" d="M0 2C0 .8954.8954 0 2 0h24c1.1046 0 2 .8954 2 2v16c0 1.1046-.8954 2-2 2H2c-1.1046 0-2-.8954-2-2z"/><mask id="b" width="28" height="20" x="0" y="0" maskUnits="userSpaceOnUse" style="mask-type:luminance"><rect width="28" height="20" fill="#fff" rx="2"/></mask><g mask="url(#b)"><path fill="#f5f5f5" d="M26 19.5v.5H2v-.5zm1.5-1.5V2c0-.8284-.6716-1.5-1.5-1.5H2C1.1716.5.5 1.1716.5 2v16c0 .8284.6716 1.5 1.5 1.5v.5c-1.1046 0-2-.8954-2-2V2C0 .8954.8954 0 2 0h24c1.1046 0 2 .8954 2 2v16c0 1.1046-.8954 2-2 2v-.5c.8284 0 1.5-.6716 1.5-1.5"/><path fill="#e41d33" fill-rule="evenodd" d="M0 6.6667h28V0H0z" clip-rule="evenodd"/><path fill="#262626" fill-rule="evenodd" d="M0 20h28v-6.6667H0z" clip-rule="evenodd"/><mask id="c" fill="#fff"><path fill-rule="evenodd" d="M10.6667 8.6667A.6666.6666 0 0 1 11.3333 8h.4607a.333.333 0 0 1 .2981.1843l.5746 1.149S13.3991 8 14 8c.6667 0 1.3333 1.3333 1.3333 1.3333l.5746-1.149A.333.333 0 0 1 16.206 8h.4607a.6667.6667 0 0 1 .6666.6667v2.0876c0 .5325-.5934.8501-1.0364.5547l-.9636-.6423h-.6666v.6666a.6667.6667 0 0 1-1.3334 0v-.6666h-.6666l-.9636.6423c-.443.2954-1.0364-.0222-1.0364-.5547z" clip-rule="evenodd"/></mask><path stroke="#c6a846" d="M10.6667 8.6667A.6666.6666 0 0 1 11.3333 8h.4607a.333.333 0 0 1 .2981.1843l.5746 1.149S13.3991 8 14 8c.6667 0 1.3333 1.3333 1.3333 1.3333l.5746-1.149A.333.333 0 0 1 16.206 8h.4607a.6667.6667 0 0 1 .6666.6667v2.0876c0 .5325-.5934.8501-1.0364.5547l-.9636-.6423h-.6666v.6666a.6667.6667 0 0 1-1.3334 0v-.6666h-.6666l-.9636.6423c-.443.2954-1.0364-.0222-1.0364-.5547z" clip-rule="evenodd" mask="url(#c)"/></g></g><defs><clipPath id="a"><path fill="#fff" d="M0 0h28v20H0z"/></clipPath></defs></svg>
